source/img/sprite/2.svg

<svg width="261" height="276" viewBox="0 0 261 276" fill="none" xmlns="http://www.w3.org/2000/svg">
<path d="M29.5474 48.523L32.0509 45.8503L41.0314 54.2619C41.857 55.0351 42.4151 55.9036 42.7057 56.8671C42.996 57.8191 43.0018 58.789 42.7232 59.7769C42.4446 60.7648 41.9131 61.6775 41.1287 62.515C39.8436 63.887 38.4947 64.6307 37.0822 64.746C35.6636 64.8557 34.3159 64.3125 33.0389 63.1164L35.559 60.4258C36.1946 61.0211 36.7889 61.327 37.3422 61.3434C37.8955 61.3598 38.4419 61.08 38.9815 60.5039C39.46 59.9931 39.6659 59.4221 39.5991 58.7909C39.5324 58.1598 39.1754 57.541 38.528 56.9346L29.5474 48.523Z"/>
<path d="M47.5235 55.5395L36.1483 41.883L40.9319 37.8985C42.5889 36.5183 44.1114 35.7903 45.4993 35.7145C46.882 35.6325 48.0838 36.2043 49.1046 37.4299C49.6619 38.099 49.9822 38.8331 50.0654 39.6323C50.1433 40.4253 49.9749 41.1958 49.56 41.9438C50.4062 41.5355 51.2507 41.4305 52.0936 41.6287C52.9428 41.8216 53.6877 42.3027 54.3283 43.0718C55.4221 44.3849 55.8313 45.7281 55.5559 47.1013C55.2805 48.4746 54.3726 49.8133 52.8323 51.1175L47.5235 55.5395ZM45.3842 47.2491L48.4545 50.9352L50.8651 48.9274C51.5279 48.3753 51.9135 47.7893 52.022 47.1693C52.1316 46.5379 51.9546 45.9439 51.491 45.3874C50.4493 44.1368 49.2735 44.0412 47.9635 45.1006L45.3842 47.2491ZM43.7279 45.2606L45.8101 43.5262C47.2087 42.3189 47.4471 41.1619 46.5252 40.0551C46.0095 39.436 45.4584 39.1431 44.8718 39.1763C44.2862 39.1981 43.6057 39.5319 42.8303 40.1777L40.8606 41.8184L43.7279 45.2606Z" />
<path d="M61.277 41.1622L67.8067 36.9399L69.4041 39.4103L59.7992 45.6211L50.1484 30.6961L53.2236 28.7076L61.277 41.1622Z"/>
<path d="M80.1023 28.7377L78.8002 29.2942L80.7143 33.7729L77.4703 35.1593L72.2797 23.014L75.5237 21.6276L77.4761 26.1961L78.6323 25.702L79.3289 20.0013L83.426 18.2503L81.923 25.7294L88.987 30.2374L84.6654 32.0843L80.1023 28.7377Z"/>
<path d="M87.9121 23.5278C87.5408 22.2713 87.4517 21.0798 87.6449 19.9535C87.8382 18.8271 88.3079 17.8609 89.054 17.0549C89.808 16.2465 90.7859 15.6647 91.9877 15.3095C93.6969 14.8044 95.2445 14.9155 96.6306 15.643C98.0244 16.3682 99.0491 17.6098 99.7044 19.3679L99.9839 20.2272C100.558 22.1705 100.477 23.8917 99.7406 25.3907C99.0018 26.882 97.7193 27.8975 95.8931 28.4372C94.0669 28.977 92.4345 28.823 90.9959 27.9753C89.5651 27.1252 88.5522 25.6934 87.9571 23.6799L87.9121 23.5278ZM91.3679 22.7737C91.7231 23.9756 92.2216 24.8296 92.8634 25.3357C93.5029 25.8341 94.2441 25.9587 95.0869 25.7096C95.9064 25.4674 96.4541 24.9661 96.73 24.2057C97.0036 23.4375 96.9363 22.3627 96.5281 20.9813C96.1798 19.8029 95.6797 18.9578 95.0278 18.4461C94.3759 17.9345 93.6324 17.802 92.7973 18.0488C91.9701 18.2933 91.4259 18.8063 91.1646 19.5879C90.9011 20.3616 90.9689 21.4235 91.3679 22.7737Z"/>
<path d="M112.475 11.0767L114.751 24.0872L111.276 24.695L109.492 14.4983L106.426 15.0347L106.912 19.0887C107.15 21.2529 107.002 22.8857 106.468 23.987C105.933 25.0884 104.971 25.7731 103.58 26.0412L102.402 26.2473L101.871 23.4279L102.298 23.3161C102.915 23.1586 103.307 22.7099 103.475 21.9701C103.643 21.2302 103.618 20.0242 103.4 18.3522L102.675 12.7909L112.475 11.0767Z"/>
<path d="M116.535 17.0701C116.459 15.7621 116.644 14.5816 117.088 13.5288C117.532 12.4759 118.209 11.6419 119.119 11.0267C120.037 10.411 121.122 10.067 122.373 9.99446C124.153 9.89137 125.634 10.3517 126.819 11.3754C128.011 12.3986 128.726 13.8408 128.964 15.7019L129.041 16.6023C129.158 18.6252 128.688 20.2828 127.63 21.575C126.571 22.8591 125.091 23.5563 123.19 23.6664C121.289 23.7766 119.734 23.2553 118.526 22.1025C117.326 20.9493 116.666 19.3246 116.544 17.2285L116.535 17.0701ZM120.072 17.122C120.144 18.3731 120.435 19.3181 120.945 19.957C121.455 20.5878 122.148 20.8778 123.025 20.8269C123.878 20.7775 124.526 20.4139 124.967 19.7362C125.409 19.0504 125.588 17.9884 125.504 16.5504C125.433 15.3236 125.138 14.387 124.62 13.7404C124.102 13.0938 123.408 12.7958 122.538 12.8461C121.677 12.896 121.031 13.2718 120.599 13.9734C120.166 14.6669 119.99 15.7164 120.072 17.122Z"/>
<path d="M143.062 23.7258L139.528 23.521L139.821 18.4514L135.446 18.1979L135.153 23.2675L131.631 23.0635L132.395 9.87756L135.917 10.0816L135.61 15.3706L139.985 15.6241L140.292 10.3351L143.826 10.5399L143.062 23.7258Z"/>
<path d="M151.781 20.1102L150.386 19.8663L149.547 24.664L146.072 24.0561L148.348 11.0457L151.823 11.6536L150.967 16.5475L152.205 16.7642L155.899 12.3666L160.288 13.1343L154.948 18.5823L158.409 26.2142L153.78 25.4044L151.781 20.1102Z"/>
<path d="M166.53 28.596C166.463 28.2457 166.46 27.8338 166.522 27.3602C165.435 28.0352 164.235 28.1814 162.923 27.7989C161.68 27.4369 160.754 26.7769 160.143 25.819C159.54 24.8634 159.398 23.8387 159.717 22.7449C160.108 21.4011 160.905 20.5143 162.107 20.0847C163.316 19.6574 164.864 19.7142 166.749 20.2551L168.307 20.7094L168.519 19.9828C168.69 19.3968 168.674 18.8836 168.472 18.4432C168.278 18.0051 167.856 17.6916 167.208 17.5026C166.637 17.3364 166.148 17.3422 165.74 17.52C165.34 17.7001 165.071 18.0284 164.932 18.505L161.545 17.5179C161.759 16.7835 162.184 16.1698 162.819 15.6769C163.454 15.1839 164.237 14.8823 165.168 14.7721C166.101 14.654 167.083 14.7453 168.114 15.0459C169.677 15.5013 170.8 16.2567 171.484 17.3122C172.179 18.3622 172.319 19.5982 171.904 21.0202L170.302 26.5166C169.959 27.7221 169.862 28.6812 170.01 29.3941L169.952 29.5933L166.53 28.596ZM164.416 25.4241C164.916 25.5698 165.409 25.5948 165.894 25.499C166.382 25.3953 166.783 25.1856 167.095 24.8698L167.73 22.69L166.465 22.3211C164.769 21.827 163.696 22.15 163.245 23.29L163.175 23.4859C163.052 23.9078 163.099 24.2987 163.317 24.6587C163.534 25.0187 163.9 25.2738 164.416 25.4241Z"/>
</svg>

<svg width="261" height="276" fill="none" xmlns="http://www.w3.org/2000/svg"><path d="M29.547 48.523l2.504-2.673 8.98 8.412c.826.773 1.384 1.642 1.675 2.605.29.952.296 1.922.017 2.91-.278.988-.81 1.9-1.594 2.738-1.285 1.372-2.634 2.116-4.047 2.231-1.418.11-2.766-.433-4.043-1.63l2.52-2.69c.636.595 1.23.901 1.783.917.553.017 1.1-.263 1.64-.84.478-.51.684-1.08.617-1.712-.067-.631-.424-1.25-1.071-1.856l-8.98-8.412zm17.976 7.017L36.148 41.882l4.784-3.985c1.657-1.38 3.18-2.108 4.567-2.184 1.383-.081 2.585.49 3.606 1.716.557.669.877 1.403.96 2.202.078.793-.09 1.564-.505 2.312.846-.409 1.69-.514 2.534-.315.849.193 1.594.674 2.234 1.443 1.094 1.313 1.503 2.656 1.228 4.03-.275 1.373-1.183 2.711-2.724 4.016l-5.309 4.421zm-2.139-8.29l3.07 3.685 2.411-2.008c.663-.552 1.048-1.138 1.157-1.758.11-.631-.067-1.225-.531-1.782-1.042-1.25-2.218-1.346-3.527-.286l-2.58 2.148zm-1.656-1.99l2.082-1.734c1.399-1.207 1.637-2.364.715-3.47-.515-.62-1.067-.913-1.653-.88-.586.022-1.266.356-2.042 1.002l-1.97 1.64 2.868 3.443zm17.549-4.098l6.53-4.222 1.597 2.47-9.605 6.211-9.65-14.925 3.075-1.988 8.053 12.454zm18.825-12.424l-1.302.556 1.914 4.479-3.244 1.386-5.19-12.145 3.244-1.386 1.952 4.568 1.156-.494.697-5.7 4.097-1.752-1.503 7.48 7.064 4.507-4.322 1.847-4.563-3.346zm7.81-5.21c-.371-1.257-.46-2.448-.267-3.575.193-1.126.663-2.092 1.409-2.898.754-.808 1.732-1.39 2.934-1.745 1.709-.506 3.257-.395 4.643.333 1.393.725 2.418 1.967 3.073 3.725l.28.86c.574 1.942.493 3.664-.243 5.163-.74 1.491-2.022 2.507-3.848 3.046-1.826.54-3.459.386-4.897-.462-1.43-.85-2.444-2.282-3.039-4.295l-.045-.152zm3.456-.754c.355 1.202.854 2.056 1.495 2.562.64.498 1.381.623 2.224.374.82-.243 1.367-.744 1.643-1.504.274-.768.206-1.843-.202-3.225-.348-1.178-.848-2.023-1.5-2.535s-1.396-.644-2.23-.397c-.828.244-1.372.757-1.633 1.539-.264.774-.196 1.835.203 3.186zm21.107-11.697l2.276 13.01-3.475.608-1.784-10.197-3.066.537.486 4.054c.238 2.164.09 3.797-.444 4.898-.535 1.101-1.497 1.786-2.888 2.054l-1.178.206-.531-2.82.427-.11c.617-.158 1.009-.607 1.177-1.347.168-.74.143-1.946-.075-3.618l-.725-5.561 9.8-1.714zm4.06 5.993c-.076-1.308.109-2.488.553-3.541.444-1.053 1.121-1.887 2.031-2.502.918-.616 2.003-.96 3.254-1.033 1.78-.103 3.261.358 4.446 1.381 1.192 1.024 1.907 2.466 2.145 4.327l.077.9c.117 2.023-.353 3.68-1.411 4.973-1.059 1.284-2.539 1.981-4.44 2.091-1.901.11-3.456-.41-4.664-1.564-1.2-1.153-1.86-2.777-1.982-4.873l-.009-.159zm3.537.052c.072 1.251.363 2.196.873 2.835.51.63 1.203.92 2.08.87.853-.05 1.501-.413 1.942-1.09.442-.687.621-1.749.537-3.187-.071-1.226-.366-2.163-.884-2.81-.518-.646-1.212-.944-2.082-.894-.861.05-1.507.426-1.939 1.127-.433.694-.609 1.743-.527 3.149zm22.99 6.604l-3.534-.205.293-5.07-4.375-.253-.293 5.07-3.522-.204.764-13.186 3.522.204-.307 5.289 4.375.253.307-5.289 3.534.205-.764 13.186zm8.719-3.616l-1.395-.244-.839 4.798-3.475-.608 2.276-13.01 3.475.608-.856 4.893 1.238.217 3.694-4.397 4.389.767-5.34 5.448 3.461 7.632-4.629-.81-1.999-5.294zm14.749 8.486c-.067-.35-.07-.762-.008-1.236-1.087.675-2.287.821-3.599.439-1.243-.362-2.169-1.022-2.78-1.98-.603-.956-.745-1.98-.426-3.074.391-1.344 1.188-2.23 2.39-2.66 1.209-.428 2.757-.37 4.642.17l1.558.454.212-.726c.171-.586.155-1.1-.047-1.54-.194-.438-.616-.751-1.264-.94-.571-.167-1.06-.16-1.468.017-.4.18-.669.508-.808.985l-3.387-.987c.214-.735.639-1.348 1.274-1.841.635-.493 1.418-.795 2.349-.905.933-.118 1.915-.027 2.946.274 1.563.455 2.686 1.21 3.37 2.266.695 1.05.835 2.286.42 3.708l-1.602 5.497c-.343 1.205-.44 2.164-.292 2.877l-.058.2-3.422-.998zm-2.114-3.172c.5.146.993.17 1.478.075.488-.104.889-.313 1.201-.63l.635-2.179-1.265-.369c-1.696-.494-2.769-.171-3.22.969l-.07.196a1.41 1.41 0 00.142 1.173c.217.36.583.615 1.099.765z"/></svg>
